X: 1
T: Two Steps Up
R: reel
M: 4/4
L: 1/8
K: Dmaj
FGAG Fc~c2|BGBd fdBG|FGAG Fc~c2|BAGB AE~E2|
FGAG Fc~c2|BGBd ~f3g|af (3gfe fdBd|1 GBdB cAAG:|2 GBdB cAAB||
|:caag ~a3g|fdcd BdGB|caag fc~c2|dBAB DBAB|
caag ~a3g|fdcd BdGB|AE~E2 A=F~F2|1 A^F~F2 GBdB:|2 A^F~F2 GBBG||

